src/assets/icons/weeks,fancy,03.svg

<svg width="48" height="48" viewBox="0 0 48 48" fill="none" xmlns="http://www.w3.org/2000/svg">
<rect opacity="0.2" x="4" y="6" width="40" height="40" rx="4" fill="black"/>
<path d="M23.949 41.2784C28.5229 41.2784 31.7942 38.7628 31.7843 35.2827C31.7942 32.7472 30.1834 30.9375 27.1905 30.5597V30.4006C29.4675 29.9929 31.0385 28.3821 31.0286 26.0952C31.0385 22.8835 28.2246 20.358 24.0087 20.358C19.8326 20.358 16.6905 22.804 16.6309 26.3239H20.7573C20.807 24.7727 22.2289 23.7685 23.9888 23.7685C25.7289 23.7685 26.8922 24.8224 26.8823 26.3537C26.8922 27.9545 25.53 29.0384 23.5712 29.0384H21.6721V32.2003H23.5712C25.878 32.2003 27.3198 33.3537 27.3098 34.9943C27.3198 36.6151 25.9277 37.7287 23.959 37.7287C22.0598 37.7287 20.638 36.7344 20.5584 35.2429H16.2232C16.2928 38.8026 19.4746 41.2784 23.949 41.2784Z" fill="black"/>
<g opacity="0.4">
<path d="M10 4C10 2.89543 10.8954 2 12 2C13.1046 2 14 2.89543 14 4V8C14 9.10457 13.1046 10 12 10C10.8954 10 10 9.10457 10 8V4Z" fill="black"/>
<path d="M34 4C34 2.89543 34.8954 2 36 2C37.1046 2 38 2.89543 38 4V8C38 9.10457 37.1046 10 36 10C34.8954 10 34 9.10457 34 8V4Z" fill="black"/>
</g>
<path fill-rule="evenodd" clip-rule="evenodd" d="M10 6.00869C7.52043 6.04456 6.11466 6.22849 5.17157 7.17157C4 8.34315 4 10.2288 4 14V16H44V14C44 10.2288 44 8.34315 42.8284 7.17157C41.8853 6.22849 40.4796 6.04456 38 6.00869V8C38 9.10457 37.1046 10 36 10C34.8954 10 34 9.10457 34 8V6H14V8C14 9.10457 13.1046 10 12 10C10.8954 10 10 9.10457 10 8V6.00869Z" fill="black"/>
</svg>

<svg xmlns="http://www.w3.org/2000/svg" width="48" height="48" fill="none" viewBox="0 0 48 48">
  <rect width="40" height="40" x="4" y="6" fill="#000" opacity=".2" rx="4"/>
  <path fill="#000" d="M23.949 41.278c4.574 0 7.845-2.515 7.835-5.995.01-2.536-1.6-4.346-4.593-4.723v-.16c2.277-.407 3.848-2.018 3.838-4.305.01-3.211-2.804-5.737-7.02-5.737-4.176 0-7.319 2.446-7.378 5.966h4.126c.05-1.551 1.472-2.556 3.232-2.556 1.74 0 2.903 1.054 2.893 2.586.01 1.6-1.352 2.684-3.31 2.684h-1.9V32.2h1.9c2.306 0 3.748 1.154 3.738 2.794.01 1.621-1.382 2.735-3.351 2.735-1.9 0-3.321-.995-3.4-2.486h-4.336c.07 3.56 3.252 6.035 7.726 6.035z"/>
  <g opacity=".4">
    <path fill="#000" d="M10 4a2 2 0 114 0v4a2 2 0 11-4 0V4zM34 4a2 2 0 114 0v4a2 2 0 11-4 0V4z"/>
  </g>
  <path fill="#000" fill-rule="evenodd" d="M10 6.009c-2.48.036-3.885.22-4.828 1.163C4 8.343 4 10.229 4 14v2h40v-2c0-3.771 0-5.657-1.172-6.828-.943-.944-2.348-1.127-4.828-1.163V8a2 2 0 11-4 0V6H14v2a2 2 0 11-4 0V6.009z" clip-rule="evenodd"/>
</svg>
